dist/svgs/devui-icons/editor/search-replace.svg

<?xml version="1.0" encoding="UTF-8"?>
<svg width="16px" height="16px" viewBox="0 0 16 16" version="1.1" xmlns="http://www.w3.org/2000/svg" xmlns:xlink="http://www.w3.org/1999/xlink">
    <title>edit icon/search and replace</title>
    <desc>Created with Sketch.</desc>
    <g id="edit-icon/search-and-replace" stroke="none" stroke-width="1" fill="none" fill-rule="evenodd">
        <path d="M5,1.5 L5,5 L1.5,5 L1.5,14.5 L8.5,14.5 L8.5,15.5 L0.5,15.5 L0.5,4.02177031 L4.06750758,0.5 L13.5,0.5 L13.5,7.46153846 L12.5,7.46153846 L12.5,1.5 L5,1.5 Z M4,8 L4,7 L9,7 L9,8 L4,8 Z M4,10 L4,9 L7,9 L7,10 L4,10 Z M11,14 C9.34314575,14 8,12.6568542 8,11 C8,9.34314575 9.34314575,8 11,8 C12.6568542,8 14,9.34314575 14,11 C14,12.6568542 12.6568542,14 11,14 Z M11,13 C12.1045695,13 13,12.1045695 13,11 C13,9.8954305 12.1045695,9 11,9 C9.8954305,9 9,9.8954305 9,11 C9,12.1045695 9.8954305,13 11,13 Z M13.1464466,13.8535534 L14.5606602,15.267767 C14.7559223,15.4630291 15.0725048,15.4630291 15.267767,15.267767 C15.4630291,15.0725048 15.4630291,14.7559223 15.267767,14.5606602 L13.8535534,13.1464466 C13.6582912,12.9511845 13.3417088,12.9511845 13.1464466,13.1464466 C12.9511845,13.3417088 12.9511845,13.6582912 13.1464466,13.8535534 Z" id="形状结合" fill="#293040" fill-rule="nonzero"></path>
    </g>
</svg>

<svg xmlns="http://www.w3.org/2000/svg" viewBox="0 0 16 16"><path d="M5 1.5V5H1.5v9.5h7v1h-8V4.022L4.068.5H13.5v6.962h-1V1.5H5zM4 8V7h5v1H4zm0 2V9h3v1H4zm7 4a3 3 0 110-6 3 3 0 010 6zm0-1a2 2 0 100-4 2 2 0 000 4zm2.146.854l1.415 1.414a.5.5 0 00.707-.707l-1.414-1.415a.5.5 0 00-.708.708z"/></svg>
